public/assets/landing_page_images/features/Teacher Management.svg

<?xml version="1.0" encoding="UTF-8" standalone="no"?>
<!-- Created with Inkscape (http://www.inkscape.org/) -->

<svg
   width="72"
   height="72"
   viewBox="0 0 72 72"
   version="1.1"
   id="svg1"
   xmlns="http://www.w3.org/2000/svg"
   xmlns:svg="http://www.w3.org/2000/svg">
  <defs
     id="defs1" />
  <g
     id="layer1">
    <path
       style="fill:#860626;fill-opacity:1;fill-rule:evenodd;stroke:none"
       d="m 67.319134,62.165544 c 0.302418,-0.340058 0.529231,-0.755684 0.756045,-1.17131 0.982857,-2.229266 0.68044,-5.214217 -0.642638,-6.6878 -0.945055,-1.095741 -2.116924,-1.586935 -3.629013,-1.586935 -1.512088,0 -2.683957,0.491194 -3.629012,1.586935 -1.323078,1.473583 -1.587693,4.458534 -0.604836,6.650016 0.189012,0.45341 0.415825,0.869036 0.718243,1.209094 -2.646155,0.831252 -4.536266,3.362792 -4.687475,6.347742 -0.151209,-2.98495 -2.04132,-5.51649 -4.687475,-6.347742 0.302418,-0.340058 0.567034,-0.755684 0.756045,-1.17131 0.982857,-2.229266 0.718242,-5.214217 -0.642638,-6.6878 -0.945055,-1.095741 -2.116924,-1.586935 -3.629013,-1.586935 -1.512088,0 -2.646155,0.491194 -3.629012,1.586935 -1.323078,1.473583 -1.587693,4.458534 -0.604836,6.6878 0.189012,0.415626 0.415825,0.831252 0.718243,1.17131 -2.608353,0.831252 -4.536266,3.362792 -4.649673,6.309958 -0.189011,-2.947166 -2.079122,-5.478706 -4.687474,-6.309958 0.264615,-0.340058 0.529231,-0.755684 0.718242,-1.17131 0.982857,-2.229266 0.718242,-5.214217 -0.604836,-6.6878 -0.982857,-1.095741 -2.116924,-1.586935 -3.629012,-1.586935 -1.512089,0 -2.683958,0.491194 -3.666815,1.586935 -1.323078,1.473583 -1.587693,4.458534 -0.604836,6.6878 0.189012,0.415626 0.453627,0.831252 0.756045,1.17131 -2.759562,0.869036 -4.687475,3.589497 -4.687475,6.725584 v 0.680115 c 0,1.322446 1.02066,2.418187 2.305935,2.418187 h 11.794291 c 1.171869,0 2.192529,-0.982388 2.305935,-2.191482 0.07561,1.209094 1.096264,2.191482 2.305935,2.191482 h 11.756489 c 1.209671,0 2.192528,-0.982388 2.305935,-2.191482 0.113407,1.209094 1.096264,2.191482 2.305935,2.191482 h 11.794291 c 1.285275,0 2.305935,-1.095741 2.305935,-2.418187 v -0.680115 c 0,-3.136087 -1.927913,-5.856548 -4.687475,-6.725584 z M 33.070328,60.011845 c -0.453626,0.944605 -1.096264,1.435799 -2.041319,1.435799 -0.982858,0 -1.625496,-0.491194 -2.04132,-1.435799 -0.68044,-1.473582 -0.453626,-3.400576 0.189011,-4.118475 0.491429,-0.566763 1.02066,-0.755684 1.852309,-0.755684 0.831648,0 1.323077,0.226705 1.814506,0.755684 0.642638,0.717899 0.869451,2.644893 0.226813,4.118475 z m -3.780221,4.307397 h 3.477804 c 2.23033,0 4.044836,2.040346 4.044836,4.571886 v 0.680115 H 25.207468 v -0.680115 c 0,-2.53154 1.852308,-4.571886 4.082639,-4.571886 z m 20.186382,-4.307397 c -0.453626,0.944605 -1.134066,1.435799 -2.079122,1.435799 -0.945055,0 -1.587693,-0.491194 -2.041319,-1.435799 -0.642638,-1.473582 -0.415824,-3.400576 0.226813,-4.118475 0.491429,-0.566763 0.982858,-0.755684 1.814506,-0.755684 0.831649,0 1.36088,0.226705 1.852309,0.755684 0.642638,0.717899 0.869451,2.644893 0.226813,4.118475 z m -3.818023,4.307397 h 3.477803 c 2.268133,0 4.082639,2.040346 4.082639,4.571886 v 0.680115 H 41.613629 v -0.680115 c 0,-2.53154 1.814506,-4.571886 4.044837,-4.571886 z m 20.186382,-4.307397 c -0.415824,0.944605 -1.096264,1.435799 -2.04132,1.435799 -0.945055,0 -1.625495,-0.491194 -2.041319,-1.435799 -0.642638,-1.473582 -0.415824,-3.400576 0.189011,-4.118475 0.491429,-0.566763 1.02066,-0.755684 1.852308,-0.755684 0.831649,0 1.36088,0.226705 1.852309,0.755684 0.604835,0.717899 0.831649,2.644893 0.189011,4.118475 z m -3.780221,4.307397 h 3.477803 c 2.230331,0 4.044837,2.040346 4.044837,4.571886 v 0.680115 H 58.01979 v -0.680115 c 0,-2.53154 1.814506,-4.571886 4.044837,-4.571886 z"
       id="path1-1" />
    <path
       style="fill:#860626;fill-opacity:1;fill-rule:evenodd;stroke:none"
       d="m 18.214058,15.313162 h -3.629013 c 2.570551,-0.90682 4.42286,-3.362792 4.42286,-6.2721737 0,-3.665065 -2.986375,-6.650015 -6.65319,-6.650015 -3.666815,0 -6.6531899,2.98495 -6.6531899,6.650015 0,2.9093817 1.8523085,5.3653537 4.4228589,6.2721737 H 6.4575694 c -3.5534082,0 -6.4641784,2.909382 -6.4641784,6.498879 v 8.917066 c 0,0.680115 0.529231,1.209094 1.2096706,1.209094 h 4.6496723 v 14.47134 c 0,0.680115 0.529231,1.209094 1.2096709,1.209094 H 18.25186 c 0.642638,0 1.209671,-0.528979 1.209671,-1.209094 v -14.47134 h 4.044837 c 0.642638,0 1.209671,-0.528979 1.209671,-1.209094 v -8.917066 c 0,-3.589497 -2.910771,-6.498879 -6.501981,-6.498879 z M 8.0830646,9.0409883 c 0,-2.342619 1.9279134,-4.231828 4.2716504,-4.231828 2.343737,0 4.233848,1.889209 4.233848,4.231828 0,2.3426187 -1.890111,4.2696117 -4.233848,4.2696117 -2.343737,0 -4.2716504,-1.926993 -4.2716504,-4.2696117 z M 11.447462,45.200447 H 8.2720757 V 31.938201 h 3.1753863 z m 5.594727,0 H 13.866803 V 31.938201 h 3.175386 z m 5.254508,-15.680434 h -2.835166 v -7.481267 c 0,-0.642331 -0.567033,-1.209094 -1.209671,-1.209094 -0.68044,0 -1.209671,0.566763 -1.209671,1.209094 v 7.481267 H 8.2720757 v -7.481267 c 0,-0.642331 -0.5670333,-1.209094 -1.2096709,-1.209094 -0.6804399,0 -1.2096709,0.566763 -1.2096709,1.209094 v 7.481267 H 2.4127324 v -7.707972 c 0,-2.267051 1.8145063,-4.080692 4.044837,-4.080692 H 18.214058 c 2.268133,0 4.082639,1.813641 4.082639,4.080692 z"
       id="path2-9" />
    <path
       style="fill:#860626;fill-opacity:1;fill-rule:evenodd;stroke:none"
       d="m 57.830779,15.955493 h -3.250991 c -0.68044,0 -1.209671,0.528978 -1.209671,1.209094 v 9.446044 c 0,0.680116 0.529231,1.209094 1.209671,1.209094 h 3.250991 c 0.642637,0 1.20967,-0.528978 1.20967,-1.209094 v -9.446044 c 0,-0.680116 -0.567033,-1.209094 -1.20967,-1.209094 z m -0.907254,9.748318 h -1.474286 v -7.632404 h 1.474286 z"
       id="path3-5" />
    <path
       style="fill:#860626;fill-opacity:1;fill-rule:evenodd;stroke:none"
       d="M 69.322652,30.615754 V 7.0762113 c 1.587693,-0.415626 2.683957,-1.813641 2.683957,-3.476145 0,-1.9647769 -1.625495,-3.5894966 -3.59121,-3.5894966 H 28.534063 c -1.965716,0 -3.591211,1.6247197 -3.591211,3.5894966 0,1.662504 1.134067,3.060519 2.72176,3.476145 V 30.615754 c -1.587693,0.377842 -2.72176,1.813641 -2.72176,3.476145 0,1.964777 1.625495,3.589497 3.591211,3.589497 h 18.749898 v 4.760806 l -4.95209,4.911944 c -0.453627,0.491194 -0.453627,1.246877 0,1.700288 0.226813,0.226705 0.529231,0.377841 0.869451,0.377841 0.34022,0 0.604835,-0.151136 0.831648,-0.377841 l 4.460662,-4.420749 4.422859,4.420749 c 0.226813,0.226705 0.529231,0.377841 0.869451,0.377841 0.302417,0 0.604835,-0.151136 0.831648,-0.377841 0.453627,-0.453411 0.453627,-1.209094 0,-1.700288 L 49.6655,42.442202 v -4.760806 h 18.749899 c 1.965715,0 3.59121,-1.62472 3.59121,-3.589497 0,-1.662504 -1.096264,-3.098303 -2.683957,-3.476145 z M 27.362194,3.6000663 c 0,-0.642331 0.529231,-1.171309 1.171869,-1.171309 h 39.881336 c 0.642637,0 1.171868,0.528978 1.171868,1.171309 0,0.642331 -0.529231,1.17131 -1.171868,1.17131 H 28.534063 c -0.642638,0 -1.171869,-0.528979 -1.171869,-1.17131 z M 66.90331,7.1895633 V 30.502402 H 30.046151 V 7.1895633 Z M 68.415399,35.263208 H 28.534063 c -0.642638,0 -1.171869,-0.528978 -1.171869,-1.171309 0,-0.642331 0.529231,-1.17131 1.171869,-1.17131 h 39.881336 c 0.642637,0 1.171868,0.528979 1.171868,1.17131 0,0.642331 -0.529231,1.171309 -1.171868,1.171309 z"
       id="path4-3" />
    <path
       style="fill:#860626;fill-opacity:1;fill-rule:evenodd;stroke:none"
       d="m 44.108575,17.429076 h -5.29231 v -5.252001 c 0,-0.491194 -0.34022,-0.90682 -0.831649,-0.90682 h -0.0756 c -3.893628,0 -7.069014,3.136087 -7.069014,7.065641 0,3.891771 3.175386,7.065642 7.069014,7.065642 3.93143,0 7.106816,-3.173871 7.106816,-7.065642 0,-0.491194 -0.415824,-0.90682 -0.907253,-0.90682 z m -6.199563,5.894332 c -2.72176,0 -4.95209,-2.229267 -4.95209,-4.987512 0,-2.304835 1.54989,-4.307396 3.780221,-4.836375 v 4.836375 c 0,0.642331 0.529231,1.209094 1.171869,1.209094 h 4.838683 c -0.529231,2.191482 -2.494946,3.778418 -4.838683,3.778418 z"
       id="path5-2" />
    <path
       style="fill:#860626;fill-opacity:1;fill-rule:evenodd;stroke:none"
       d="m 40.177145,9.0032043 c -0.491429,0 -0.869451,0.377842 -0.869451,0.869036 v 6.1966047 c 0,0.491195 0.378022,0.869037 0.869451,0.869037 h 6.199563 c 0.226813,0 0.453626,-0.07557 0.604835,-0.226706 0.189011,-0.18892 0.264616,-0.415626 0.264616,-0.642331 0,-3.89177 -3.137584,-7.0656407 -7.069014,-7.0656407 z m 1.20967,5.8565477 v -3.627281 c 1.776704,0.45341 3.175386,1.851424 3.629013,3.627281 z"
       id="path6-5" />
    <path
       style="fill:#860626;fill-opacity:1;fill-rule:evenodd;stroke:none"
       d="m 64.483968,12.592701 h -3.25099 c -0.68044,0 -1.209671,0.528978 -1.209671,1.171309 v 12.846621 c 0,0.680116 0.529231,1.209094 1.209671,1.209094 h 3.25099 c 0.642638,0 1.209671,-0.528978 1.209671,-1.209094 V 13.76401 c 0,-0.642331 -0.567033,-1.171309 -1.209671,-1.171309 z m -0.907253,13.11111 h -1.436484 v -11.03298 h 1.436484 z"
       id="path7-2" />
    <path
       style="fill:#860626;fill-opacity:1;fill-rule:evenodd;stroke:none"
       d="m 51.177589,19.318285 h -3.250991 c -0.642637,0 -1.20967,0.566762 -1.20967,1.209094 v 6.083252 c 0,0.680116 0.567033,1.209094 1.20967,1.209094 h 3.250991 c 0.68044,0 1.209671,-0.528978 1.209671,-1.209094 v -6.083252 c 0,-0.642332 -0.529231,-1.209094 -1.209671,-1.209094 z m -0.869451,6.385526 h -1.474286 v -4.269612 h 1.474286 z"
       id="path8-5" />
  </g>
</svg>

<svg width="72" height="72" viewBox="0 0 72 72" fill="none" xmlns="http://www.w3.org/2000/svg">
<g clip-path="url(#clip0_312_1736)">
<path d="M67.3144 62.1866C67.6092 61.8286 67.8514 61.4285 68.0515 60.9863C69.0307 58.7646 68.7569 55.7637 67.4302 54.2896C66.4721 53.2156 65.3138 52.7207 63.7976 52.7207C62.2814 52.7207 61.1231 53.2156 60.165 54.2896C58.8383 55.7637 58.5645 58.7646 59.5437 60.9757C59.7438 61.418 59.986 61.8286 60.2808 62.1761C57.6484 62.9974 55.7531 65.5455 55.5952 68.5042C55.4478 65.5455 53.5525 62.9974 50.9202 62.1866C51.215 61.8286 51.4572 61.4285 51.6572 60.9863C52.6364 58.7646 52.3627 55.7637 51.036 54.2896C50.0778 53.2156 48.9196 52.7207 47.4033 52.7207C45.8871 52.7207 44.7289 53.2156 43.7707 54.2896C42.444 55.7637 42.1702 58.7646 43.1495 60.9863C43.3495 61.4285 43.5917 61.8286 43.8865 62.1866C41.2542 62.9974 39.3589 65.535 39.2115 68.4937C39.0535 65.535 37.1582 62.9974 34.5364 62.1866C34.8207 61.8286 35.0629 61.4285 35.2629 60.9863C36.2527 58.7751 35.9684 55.7637 34.6417 54.2896C33.6835 53.2156 32.5358 52.7207 31.0196 52.7207C29.5034 52.7207 28.3346 53.2156 27.3764 54.2896C26.0497 55.7637 25.776 58.7751 26.7657 60.9863C26.9553 61.4285 27.208 61.8286 27.4923 62.1866C24.7441 63.029 22.8067 65.7561 22.8067 68.8833V69.5782C22.8067 70.9155 23.8491 72 25.1231 72H36.9055C38.1059 72 39.0956 71.0313 39.2115 69.8099C39.3168 71.0313 40.3065 72 41.5174 72H53.2998C54.5001 72 55.4899 71.0313 55.5952 69.7994C55.711 71.0313 56.7008 72 57.9011 72H69.6835C70.9681 72 72 70.9155 72 69.5782V68.8833C72 65.7666 70.0626 63.029 67.3144 62.1866ZM33.0623 59.9965C32.6306 60.9757 31.9567 61.4495 31.0091 61.4495C30.0614 61.4495 29.3981 60.9757 28.9664 59.9965C28.3135 58.5434 28.5452 56.606 29.177 55.9006C29.6718 55.3425 30.1878 55.1319 31.0196 55.1319C31.8514 55.1319 32.3674 55.353 32.8517 55.9006C33.4835 56.606 33.7151 58.5434 33.0623 59.9965ZM29.2717 64.3241H32.7464C34.9892 64.3241 36.8108 66.3668 36.8108 68.8833V69.5888H25.2179V68.8833C25.2179 66.3668 27.0395 64.3241 29.2717 64.3241ZM49.4566 59.9965C49.0143 60.9757 48.351 61.4495 47.4033 61.4495C46.4557 61.4495 45.7923 60.9757 45.3501 59.9965C44.7078 58.5434 44.9395 56.5955 45.5712 55.9006C46.0556 55.3425 46.5715 55.1319 47.4033 55.1319C48.2352 55.1319 48.7616 55.353 49.246 55.9006C49.8777 56.5955 50.0989 58.5434 49.4566 59.9965ZM45.666 64.3241H49.1407C51.3834 64.3241 53.205 66.3668 53.205 68.8833V69.5888H41.6016V68.8833C41.6016 66.3668 43.4232 64.3241 45.666 64.3241ZM65.8508 59.9965C65.4086 60.9757 64.7452 61.4495 63.7976 61.4495C62.85 61.4495 62.1866 60.9757 61.7444 59.9965C61.1021 58.5434 61.3337 56.5955 61.955 55.9006C62.4498 55.3425 62.9658 55.1319 63.7976 55.1319C64.6294 55.1319 65.1454 55.353 65.6297 55.9006C66.2615 56.5955 66.4931 58.5434 65.8508 59.9965ZM62.0603 64.3241H65.535C67.7777 64.3241 69.5888 66.3668 69.5888 68.8833V69.5888H57.9959V68.8833C57.9959 66.3668 59.8175 64.3241 62.0603 64.3241Z" fill="#215679"/>
<path d="M18.2264 15.3097H14.5727C17.1629 14.3937 19.0161 11.9298 19.0161 9.03422C19.0161 5.35946 16.0257 2.36911 12.351 2.36911C8.67622 2.36911 5.68587 5.35946 5.68587 9.03422C5.68587 11.9298 7.53905 14.3937 10.1187 15.3097H6.46505C2.90611 15.3097 0 18.2159 0 21.7853V30.7248C0 31.3881 0.536999 31.9357 1.21088 31.9357H5.84381V46.4241C5.84381 47.0875 6.39134 47.6245 7.05469 47.6245H18.2474C18.9108 47.6245 19.4583 47.0875 19.4583 46.4241V31.9357H23.4911C24.1544 31.9357 24.702 31.3881 24.702 30.7248V21.7853C24.702 18.2159 21.7958 15.3097 18.2264 15.3097ZM8.09711 9.03422C8.09711 6.68616 10.0029 4.78034 12.351 4.78034C14.699 4.78034 16.6049 6.68616 16.6049 9.03422C16.6049 11.3823 14.699 13.2881 12.351 13.2881C10.0029 13.2881 8.09711 11.3823 8.09711 9.03422ZM11.4455 45.2132H8.25505V31.9357H11.4455V45.2132ZM17.0471 45.2132H13.8567V31.9357H17.0471V45.2132ZM22.2907 29.5244H19.4583V22.038C19.4583 21.3747 18.9108 20.8377 18.2474 20.8377C17.5841 20.8377 17.0471 21.3747 17.0471 22.038V29.5244H8.25505V22.038C8.25505 21.3747 7.71805 20.8377 7.05469 20.8377C6.39134 20.8377 5.84381 21.3747 5.84381 22.038V29.5244H2.41123V21.7853C2.41123 19.5426 4.23282 17.721 6.46505 17.721H18.2264C20.4691 17.721 22.2907 19.5426 22.2907 21.7853V29.5244Z" fill="#215679"/>
<path d="M57.8169 15.952H54.5739C53.9105 15.952 53.3735 16.489 53.3735 17.1524V26.6078C53.3735 27.2711 53.9105 27.8081 54.5739 27.8081H57.8169C58.4803 27.8081 59.0173 27.2711 59.0173 26.6078V17.1524C59.0173 16.489 58.4803 15.952 57.8169 15.952ZM56.9324 25.7128H55.4583V18.0474H56.9324V25.7128Z" fill="#215679"/>
<path d="M69.2939 30.5984V7.06522C70.8839 6.66511 72 5.24364 72 3.59052C72 1.611 70.389 0 68.4095 0H28.5347C26.5551 0 24.9441 1.611 24.9441 3.59052C24.9441 5.24364 26.0708 6.66511 27.6502 7.06522V30.609C26.0708 30.9985 24.9441 32.4305 24.9441 34.0837C24.9441 36.0632 26.5551 37.6742 28.5347 37.6742H47.2665V42.4335L42.3387 47.3612C41.8754 47.835 41.8754 48.5932 42.3387 49.067C42.5703 49.2881 42.8652 49.4145 43.1916 49.4145C43.518 49.4145 43.8128 49.2881 44.0445 49.067L48.4773 44.6341L52.9102 49.067C53.1313 49.2881 53.4367 49.4145 53.7631 49.4145C54.0895 49.4145 54.3843 49.2881 54.6054 49.067C55.0793 48.5932 55.0793 47.835 54.6054 47.3612L49.6777 42.4335V37.6742H68.4095C70.389 37.6742 72 36.0632 72 34.0837C72 32.4305 70.8839 30.9985 69.2939 30.5984ZM27.3554 3.59052C27.3554 2.9377 27.8818 2.41123 28.5347 2.41123H68.4095C69.0623 2.41123 69.5888 2.9377 69.5888 3.59052C69.5888 4.24335 69.0623 4.76982 68.4095 4.76982H28.5347C27.8818 4.76982 27.3554 4.23282 27.3554 3.59052ZM66.8932 7.17052V30.4931H30.0614V7.17052H66.8932ZM68.4095 35.2629H28.5347C27.8818 35.2629 27.3554 34.7259 27.3554 34.0837C27.3554 33.4414 27.8818 32.9044 28.5347 32.9044H68.4095C69.0623 32.9044 69.5888 33.4308 69.5888 34.0837C69.5888 34.7365 69.0623 35.2629 68.4095 35.2629Z" fill="#215679"/>
<path d="M44.1076 17.4367H38.8008V12.1614C38.8219 11.6876 38.4534 11.277 37.9795 11.2454H37.9164C34.01 11.2454 30.8406 14.4147 30.8406 18.3211C30.8406 22.2276 34.01 25.3969 37.9164 25.3969C41.8228 25.3969 44.9921 22.2276 44.9921 18.3211C44.9921 17.8263 44.592 17.4367 44.1076 17.4367ZM37.9164 23.3015C35.1682 23.3015 32.936 21.0693 32.936 18.3211C32.936 16.0047 34.5048 14.0357 36.716 13.4882V18.3211C36.716 18.9845 37.253 19.5215 37.9164 19.5215H42.7494C42.2124 21.7327 40.2328 23.3015 37.9164 23.3015Z" fill="#215679"/>
<path d="M40.1802 8.98157C39.6853 8.98157 39.2957 9.38168 39.2957 9.86604V16.0573C39.2957 16.5417 39.6958 16.9418 40.1802 16.9418H46.3715C46.6031 16.9418 46.8347 16.847 46.9927 16.6891C47.1612 16.5206 47.2559 16.289 47.2559 16.0573C47.2559 12.1509 44.0866 8.98157 40.1802 8.98157ZM41.3805 14.857V11.2138C43.1705 11.6666 44.5709 13.067 45.0132 14.857H41.3805Z" fill="#215679"/>
<path d="M64.461 12.5721H61.2179C60.5545 12.5721 60.0175 13.1091 60.0175 13.7724V26.6078C60.0175 27.2711 60.5545 27.8081 61.2179 27.8081H64.461C65.1243 27.8081 65.6718 27.2711 65.6718 26.6078V13.7724C65.6718 13.1091 65.1243 12.5721 64.461 12.5721ZM63.5765 25.7128H62.1129V14.6674H63.5765V25.7128Z" fill="#215679"/>
<path d="M51.1729 19.3214H47.9298C47.2665 19.3214 46.7189 19.8584 46.7189 20.5218V26.6078C46.7189 27.2711 47.2665 27.8081 47.9298 27.8081H51.1729C51.8362 27.8081 52.3732 27.2711 52.3732 26.6078V20.5218C52.3732 19.8584 51.8362 19.3214 51.1729 19.3214ZM50.2884 25.7128H48.8143V21.4168H50.2884V25.7128Z" fill="#215679"/>
</g>
<defs>
<clipPath id="clip0_312_1736">
<rect width="72" height="72" fill="white"/>
</clipPath>
</defs>
</svg>
